raw-svg/expand.svg

<svg fill="none" height="24" viewBox="0 0 24 24" width="24" xmlns="http://www.w3.org/2000/svg"><path clip-rule="evenodd" d="m6 4.75c-.69036 0-1.25.55964-1.25 1.25v3c0 .41421-.33579.75-.75.75s-.75-.33579-.75-.75v-3c0-1.51878 1.23122-2.75 2.75-2.75h3c.41421 0 .75.33579.75.75s-.33579.75-.75.75zm8.25-.75c0-.41421.3358-.75.75-.75h3c1.5188 0 2.75 1.23122 2.75 2.75v3c0 .41421-.3358.75-.75.75s-.75-.33579-.75-.75v-3c0-.69036-.5596-1.25-1.25-1.25h-3c-.4142 0-.75-.33579-.75-.75zm-10.25 10.25c.41421 0 .75.3358.75.75v3c0 .6904.55964 1.25 1.25 1.25h3c.41421 0 .75.3358.75.75s-.33579.75-.75.75h-3c-1.51878 0-2.75-1.2312-2.75-2.75v-3c0-.4142.33579-.75.75-.75zm16 0c.4142 0 .75.3358.75.75v3c0 1.5188-1.2312 2.75-2.75 2.75h-3c-.4142 0-.75-.3358-.75-.75s.3358-.75.75-.75h3c.6904 0 1.25-.5596 1.25-1.25v-3c0-.4142.3358-.75.75-.75z" fill="#000" fill-rule="evenodd"/></svg>

<svg width="24" height="24" viewBox="0 0 24 24" fill="none" xmlns="http://www.w3.org/2000/svg">
<path fill-rule="evenodd" clip-rule="evenodd" d="M6 4.75C5.30964 4.75 4.75 5.30964 4.75 6V9C4.75 9.41421 4.41421 9.75 4 9.75C3.58579 9.75 3.25 9.41421 3.25 9V6C3.25 4.48122 4.48122 3.25 6 3.25H9C9.41421 3.25 9.75 3.58579 9.75 4C9.75 4.41421 9.41421 4.75 9 4.75H6ZM14.25 4C14.25 3.58579 14.5858 3.25 15 3.25H18C19.5188 3.25 20.75 4.48122 20.75 6V9C20.75 9.41421 20.4142 9.75 20 9.75C19.5858 9.75 19.25 9.41421 19.25 9V6C19.25 5.30964 18.6904 4.75 18 4.75H15C14.5858 4.75 14.25 4.41421 14.25 4ZM4 14.25C4.41421 14.25 4.75 14.5858 4.75 15V18C4.75 18.6904 5.30964 19.25 6 19.25H9C9.41421 19.25 9.75 19.5858 9.75 20C9.75 20.4142 9.41421 20.75 9 20.75H6C4.48122 20.75 3.25 19.5188 3.25 18V15C3.25 14.5858 3.58579 14.25 4 14.25ZM20 14.25C20.4142 14.25 20.75 14.5858 20.75 15V18C20.75 19.5188 19.5188 20.75 18 20.75H15C14.5858 20.75 14.25 20.4142 14.25 20C14.25 19.5858 14.5858 19.25 15 19.25H18C18.6904 19.25 19.25 18.6904 19.25 18V15C19.25 14.5858 19.5858 14.25 20 14.25Z" fill="black"/>
</svg>
